X:10745
T:Michael Wiggins. JC.130
M:6/8
L:1/8
Q:120
S:John Clare,Poet,Helpston. (1793-1864)
R:Jig
O:England
A:Northamptonshire
N:
Z:P Headford
K:D
A2|fgf fed|dcBA2A|f>gf fed|geee2A|!
f>gf fed|dcB AFA|ABA ABc|edzz:|!
|:Bc|dBG GBd|ecB Ace|fdB ^Ged|cezz2e|!
a2ea2e|aec Ace|fdB ^Ged|cAzz:|]
